;FLAVOR:Marlin
;TIME:942
;Filament used: 1.14153m
;Layer height: 0.15
;MINX:128.915
;MINY:122.385
;MINZ:0.3
;MAXX:161.085
;MAXY:172.615
;MAXZ:6
;Generated with Cura_SteamEngine 99.10.0-Arachne_engine_beta_2
M82 ;absolute extrusion mode
M140 S60 ;Start heating bed
M190 S60 ;Wait for bed to reach temp before proceeding
M104 S130 ;Start heating extruder
M109 S130 ;Wait for extruder to reach temp before proceeding
G28 ;Home
M98 PBED.G      	  ; Level the bed
G1 X1 Y1 Z15.0 F6000 ;Move the platform down 15mm
;Heating
M104 S205 ;Start heating extruder
M109 S205 ;Wait for extruder to reach temp before proceeding
G92 E0
G92 E0
G1 F2400 E-1
;LAYER_COUNT:39
;LAYER:0
M107
G0 F9000 X129.522 Y122.941 Z0.3
G0 X130.9 Y122.826
;TYPE:SKIRT
G1 F1800 E0
G1 X159.1 Y122.826 E1.55111
G1 X159.449 Y122.866 E1.57043
G1 X159.779 Y122.983 E1.58969
G1 X160.075 Y123.173 E1.60904
G1 X160.32 Y123.424 E1.62833
G1 X160.502 Y123.723 E1.64758
G1 X160.612 Y124.057 E1.66693
G1 X160.644 Y124.37 E1.68423
G1 X160.644 Y170.63 E4.22872
G1 X160.604 Y170.979 E4.24804
G1 X160.487 Y171.309 E4.2673
G1 X160.297 Y171.605 E4.28664
G1 X160.046 Y171.85 E4.30593
G1 X159.747 Y172.032 E4.32519
G1 X159.413 Y172.142 E4.34453
G1 X159.1 Y172.174 E4.36184
G1 X130.9 Y172.174 E5.91295
G1 X130.551 Y172.134 E5.93227
G1 X130.221 Y172.017 E5.95153
G1 X129.925 Y171.827 E5.97087
G1 X129.68 Y171.576 E5.99017
G1 X129.498 Y171.277 E6.00942
G1 X129.388 Y170.943 E6.02876
G1 X129.356 Y170.63 E6.04607
G1 X129.356 Y124.37 E8.59055
G1 X129.396 Y124.021 E8.60987
G1 X129.513 Y123.691 E8.62913
G1 X129.703 Y123.395 E8.64848
G1 X129.954 Y123.15 E8.66777
G1 X130.253 Y122.968 E8.68702
G1 X130.587 Y122.858 E8.70637
G1 X130.9 Y122.826 E8.72367
G0 F9000 X130.9 Y122.385
G1 F1800 X159.1 Y122.385 E10.27478
G1 X159.496 Y122.425 E10.29668
G1 X159.876 Y122.543 E10.31856
G1 X160.225 Y122.735 E10.34047
G1 X160.529 Y122.992 E10.36237
G1 X160.775 Y123.305 E10.38426
G1 X160.954 Y123.66 E10.40613
G1 X161.058 Y124.044 E10.42802
G1 X161.085 Y124.37 E10.44601
G1 X161.085 Y170.63 E12.99049
G1 X161.045 Y171.026 E13.01238
G1 X160.927 Y171.406 E13.03427
G1 X160.735 Y171.755 E13.05618
G1 X160.478 Y172.059 E13.07807
G1 X160.165 Y172.305 E13.09997
G1 X159.81 Y172.484 E13.12184
G1 X159.426 Y172.588 E13.14372
G1 X159.1 Y172.615 E13.16172
G1 X130.9 Y172.615 E14.71283
G1 X130.504 Y172.575 E14.73472
G1 X130.124 Y172.457 E14.7566
G1 X129.775 Y172.265 E14.77851
G1 X129.471 Y172.008 E14.80041
G1 X129.225 Y171.695 E14.82231
G1 X129.046 Y171.34 E14.84418
G1 X128.942 Y170.956 E14.86606
G1 X128.915 Y170.63 E14.88405
G1 X128.915 Y124.37 E17.42853
G1 X128.955 Y123.974 E17.45043
G1 X129.073 Y123.594 E17.47231
G1 X129.265 Y123.245 E17.49422
G1 X129.522 Y122.941 E17.51612
G1 X129.835 Y122.695 E17.53801
G1 X130.19 Y122.516 E17.55988
G1 X130.574 Y122.412 E17.58177
G1 X130.9 Y122.385 E17.59976
G0 F9000 X130.9 Y123.267
G1 F1800 X159.1 Y123.267 E19.15087
G1 X159.394 Y123.307 E19.16719
G1 X159.666 Y123.423 E19.18345
G1 X159.898 Y123.608 E19.19978
G1 X160.072 Y123.848 E19.21608
G1 X160.176 Y124.126 E19.23241
G1 X160.203 Y124.37 E19.24591
G1 X160.203 Y170.63 E21.79039
G1 X160.163 Y170.924 E21.80671
G1 X160.047 Y171.196 E21.82298
G1 X159.862 Y171.428 E21.8393
G1 X159.622 Y171.602 E21.8556
G1 X159.344 Y171.706 E21.87193
G1 X159.1 Y171.733 E21.88543
G1 X130.9 Y171.733 E23.43654
G1 X130.606 Y171.693 E23.45286
G1 X130.334 Y171.577 E23.46913
G1 X130.102 Y171.392 E23.48545
G1 X129.928 Y171.152 E23.50176
G1 X129.824 Y170.874 E23.51808
G1 X129.797 Y170.63 E23.53158
G1 X129.797 Y124.37 E26.07607
G1 X129.837 Y124.076 E26.09239
G1 X129.953 Y123.804 E26.10865
G1 X130.138 Y123.572 E26.12497
G1 X130.378 Y123.398 E26.14128
G1 X130.656 Y123.294 E26.15761
G1 X130.9 Y123.267 E26.17111
G0 F9000 X130.9 Y123.708
G1 F1800 X159.1 Y123.708 E27.72222
G1 X159.326 Y123.748 E27.73484
G1 X159.525 Y123.862 E27.74746
G1 X159.672 Y124.037 E27.76003
G1 X159.751 Y124.252 E27.77263
G1 X159.762 Y124.37 E27.77915
G1 X159.762 Y170.63 E30.32363
G1 X159.722 Y170.856 E30.33625
G1 X159.608 Y171.055 E30.34887
G1 X159.433 Y171.202 E30.36144
G1 X159.218 Y171.281 E30.37404
G1 X159.1 Y171.292 E30.38056
G1 X130.9 Y171.292 E31.93167
G1 X130.674 Y171.252 E31.94429
G1 X130.475 Y171.138 E31.95691
G1 X130.328 Y170.963 E31.96948
G1 X130.249 Y170.748 E31.98208
G1 X130.238 Y170.63 E31.9886
G1 X130.238 Y124.37 E34.53308
G1 X130.278 Y124.144 E34.5457
G1 X130.392 Y123.945 E34.55832
G1 X130.567 Y123.798 E34.57089
G1 X130.782 Y123.719 E34.58349
G1 X130.9 Y123.708 E34.59001
G0 F9000 X130.9 Y124.149
G1 F1800 X159.1 Y124.149 E36.14112
G1 X159.226 Y124.188 E36.14837
G1 X159.307 Y124.292 E36.15562
G1 X159.321 Y124.37 E36.15998
G1 X159.321 Y170.63 E38.70446
G1 X159.282 Y170.756 E38.71172
G1 X159.178 Y170.837 E38.71897
G1 X159.1 Y170.851 E38.72333
G1 X130.9 Y170.851 E40.27444
G1 X130.774 Y170.812 E40.28169
G1 X130.693 Y170.708 E40.28894
G1 X130.679 Y170.63 E40.2933
G1 X130.679 Y124.37 E42.83779
G1 X130.718 Y124.244 E42.84504
G1 X130.822 Y124.163 E42.85229
G1 X130.9 Y124.149 E42.85665
G1 F2400 E41.85665
;MESH:CarriageTop.3mf
G0 F9000 X131.424 Y124.894
G0 X131.98 Y125.45
G1 F1800 E42.85665
G0 F9000 X131.656 Y125.126
;TYPE:WALL-INNER
G1 F2002.1 X131.656 Y169.874 E45.49099
G1 X158.344 Y169.874 E47.06212
G1 X158.344 Y125.126 E49.69645
G1 X131.656 Y125.126 E51.26759
G0 F9000 X132.128 Y125.598
G1 F2002.1 X132.128 Y169.402 E53.84635
G1 X157.872 Y169.402 E55.36191
G1 X157.872 Y125.598 E57.94067
G1 X132.128 Y125.598 E59.45623
G0 F9000 X132.6 Y126.07
G1 F2002.1 X132.6 Y168.93 E61.97942
G1 X157.4 Y168.93 E63.4394
G1 X157.4 Y126.07 E65.96259
G1 X132.6 Y126.07 E67.42258
G0 F9000 X133.072 Y126.542
G1 F2002.1 X133.072 Y168.458 E69.89019
G1 X156.928 Y168.458 E71.29461
G1 X156.928 Y126.542 E73.76222
G1 X133.072 Y126.542 E75.16663
G0 F9000 X131.98 Y125.45
G0 X131.21 Y124.68
;TYPE:WALL-OUTER
G1 F1800 X131.21 Y170.32 E77.55747
G1 X158.79 Y170.32 E79.00224
G1 X158.79 Y124.68 E81.39308
G1 X131.21 Y124.68 E82.83785
G0 F9000 X131.21 Y124.88
G0 X131.98 Y125.45
G0 X133.545 Y127.015
;TYPE:SKIN
G1 F1800 X133.545 Y167.985 E85.5206
G1 X156.455 Y167.985 E87.02077
G1 X156.455 Y127.015 E89.70352
G1 X133.545 Y127.015 E91.20369
G0 F9000 X133.545 Y127.215
G0 X156.192 Y127.979
G1 F1800 X155.49 Y127.277 E91.2687
G0 F9000 X154.748 Y127.277
G1 F1800 X156.192 Y128.721 E91.40242
G0 F9000 X156.192 Y129.464
G1 F1800 X154.005 Y127.277 E91.60494
G0 F9000 X153.263 Y127.277
G1 F1800 X156.192 Y130.206 E91.87618
G0 F9000 X156.192 Y130.949
G1 F1800 X152.52 Y127.277 E92.21622
G0 F9000 X151.778 Y127.277
G1 F1800 X156.192 Y131.691 E92.62497
G0 F9000 X156.192 Y132.434
G1 F1800 X151.035 Y127.277 E93.10253
G0 F9000 X150.293 Y127.277
G1 F1800 X156.192 Y133.176 E93.6488
G0 F9000 X156.192 Y133.918
G1 F1800 X149.55 Y127.277 E94.26383
G0 F9000 X148.808 Y127.277
G1 F1800 X156.192 Y134.661 E94.94762
G0 F9000 X156.192 Y135.403
G1 F1800 X148.066 Y127.277 E95.70012
G0 F9000 X147.323 Y127.277
G1 F1800 X156.192 Y136.146 E96.52142
G0 F9000 X156.192 Y136.888
G1 F1800 X146.581 Y127.277 E97.41144
G0 F9000 X145.838 Y127.277
G1 F1800 X156.192 Y137.631 E98.37026
G0 F9000 X156.192 Y138.373
G1 F1800 X145.096 Y127.277 E99.3978
G0 F9000 X144.353 Y127.277
G1 F1800 X156.192 Y139.116 E100.49413
G0 F9000 X156.192 Y139.858
G1 F1800 X143.611 Y127.277 E101.65918
G0 F9000 X142.868 Y127.277
G1 F1800 X156.192 Y140.601 E102.89304
G0 F9000 X156.192 Y141.343
G1 F1800 X142.126 Y127.277 E104.19561
G0 F9000 X141.383 Y127.277
G1 F1800 X156.192 Y142.086 E105.56698
G0 F9000 X156.192 Y142.828
G1 F1800 X140.641 Y127.277 E107.00706
G0 F9000 X139.898 Y127.277
G1 F1800 X156.192 Y143.57 E108.51591
G0 F9000 X156.192 Y144.313
G1 F1800 X139.156 Y127.277 E110.09351
G0 F9000 X138.414 Y127.277
G1 F1800 X156.192 Y145.055 E111.73982
G0 F9000 X156.192 Y145.798
G1 F1800 X137.671 Y127.277 E113.45494
G0 F9000 X136.929 Y127.277
G1 F1800 X156.192 Y146.54 E115.23877
G0 F9000 X156.192 Y147.283
G1 F1800 X136.186 Y127.277 E117.0914
G0 F9000 X135.444 Y127.277
G1 F1800 X156.193 Y148.026 E119.01284
G0 F9000 X156.193 Y148.768
G1 F1800 X134.701 Y127.277 E121.00304
G0 F9000 X133.959 Y127.277
G1 F1800 X156.193 Y149.511 E123.062
G0 F9000 X156.193 Y150.253
G1 F1800 X133.806 Y127.866 E125.13512
G0 F9000 X133.806 Y128.609
G1 F1800 X156.193 Y150.996 E127.20825
G0 F9000 X156.193 Y151.738
G1 F1800 X133.806 Y129.351 E129.28137
G0 F9000 X133.806 Y130.094
G1 F1800 X156.193 Y152.481 E131.3545
G0 F9000 X156.193 Y153.223
G1 F1800 X133.806 Y130.836 E133.42762
G0 F9000 X133.806 Y131.579
G1 F1800 X156.193 Y153.966 E135.50075
G0 F9000 X156.193 Y154.708
G1 F1800 X133.806 Y132.321 E137.57387
G0 F9000 X133.806 Y133.064
G1 F1800 X156.193 Y155.451 E139.647
G0 F9000 X156.193 Y156.193
G1 F1800 X133.806 Y133.806 E141.72012
G0 F9000 X133.806 Y134.548
G1 F1800 X156.193 Y156.935 E143.79325
G0 F9000 X156.193 Y157.678
G1 F1800 X133.806 Y135.291 E145.86637
G0 F9000 X133.806 Y136.033
G1 F1800 X156.193 Y158.42 E147.9395
G0 F9000 X156.193 Y159.163
G1 F1800 X133.806 Y136.776 E150.01262
G0 F9000 X133.806 Y137.518
G1 F1800 X156.193 Y159.905 E152.08575
G0 F9000 X156.193 Y160.648
G1 F1800 X133.806 Y138.261 E154.15887
G0 F9000 X133.806 Y139.003
G1 F1800 X156.193 Y161.39 E156.232
G0 F9000 X156.193 Y162.133
G1 F1800 X133.806 Y139.746 E158.30512
G0 F9000 X133.806 Y140.488
G1 F1800 X156.193 Y162.875 E160.37825
G0 F9000 X156.193 Y163.618
G1 F1800 X133.806 Y141.231 E162.45137
G0 F9000 X133.806 Y141.973
G1 F1800 X156.193 Y164.36 E164.5245
G0 F9000 X156.193 Y165.103
G1 F1800 X133.806 Y142.716 E166.59762
G0 F9000 X133.806 Y143.458
G1 F1800 X156.193 Y165.845 E168.67075
G0 F9000 X156.193 Y166.587
G1 F1800 X133.806 Y144.2 E170.74387
G0 F9000 X133.806 Y144.943
G1 F1800 X156.193 Y167.33 E172.817
G0 F9000 X155.842 Y167.722
G1 F1800 X133.806 Y145.685 E174.85766
G0 F9000 X133.806 Y146.428
G1 F1800 X155.1 Y167.722 E176.82957
G0 F9000 X154.357 Y167.722
G1 F1800 X133.806 Y147.17 E178.73272
G0 F9000 X133.806 Y147.913
G1 F1800 X153.615 Y167.722 E180.56711
G0 F9000 X152.872 Y167.722
G1 F1800 X133.806 Y148.655 E182.33275
G0 F9000 X133.806 Y149.398
G1 F1800 X152.13 Y167.722 E184.02962
G0 F9000 X151.388 Y167.722
G1 F1800 X133.806 Y150.14 E185.65779
G0 F9000 X133.806 Y150.883
G1 F1800 X150.645 Y167.722 E187.21714
G0 F9000 X149.903 Y167.722
G1 F1800 X133.806 Y151.625 E188.70779
G0 F9000 X133.806 Y152.368
G1 F1800 X149.16 Y167.722 E190.12963
G0 F9000 X148.418 Y167.722
G1 F1800 X133.806 Y153.11 E191.48276
G0 F9000 X133.806 Y153.853
G1 F1800 X147.675 Y167.722 E192.76708
G0 F9000 X146.933 Y167.722
G1 F1800 X133.806 Y154.595 E193.9827
G0 F9000 X133.806 Y155.337
G1 F1800 X146.19 Y167.722 E195.12955
G0 F9000 X145.448 Y167.722
G1 F1800 X133.806 Y156.08 E196.20765
G0 F9000 X133.806 Y156.822
G1 F1800 X144.705 Y167.722 E197.21698
G0 F9000 X143.963 Y167.722
G1 F1800 X133.806 Y157.565 E198.15756
G0 F9000 X133.806 Y158.307
G1 F1800 X143.22 Y167.722 E199.02938
G0 F9000 X142.478 Y167.722
G1 F1800 X133.806 Y159.05 E199.83244
G0 F9000 X133.806 Y159.792
G1 F1800 X141.736 Y167.722 E200.56679
G0 F9000 X140.993 Y167.722
G1 F1800 X133.806 Y160.535 E201.23234
G0 F9000 X133.806 Y161.277
G1 F1800 X140.251 Y167.722 E201.82917
G0 F9000 X139.508 Y167.722
G1 F1800 X133.806 Y162.02 E202.3572
G0 F9000 X133.806 Y162.762
G1 F1800 X138.766 Y167.722 E202.81651
G0 F9000 X138.023 Y167.722
G1 F1800 X133.806 Y163.505 E203.20702
G0 F9000 X133.806 Y164.247
G1 F1800 X137.281 Y167.722 E203.52882
G0 F9000 X136.538 Y167.722
G1 F1800 X133.806 Y164.989 E203.78186
G0 F9000 X133.806 Y165.732
G1 F1800 X135.796 Y167.722 E203.96615
G0 F9000 X135.053 Y167.722
G1 F1800 X133.806 Y166.474 E204.08167
G0 F9000 X133.806 Y167.217
M104 S205
G1 F1800 X134.311 Y167.722 E204.12843
;MESH:NONMESH
G0 F600 X134.311 Y167.722 Z0.45
G0 F9000 X131.98 Y125.45
G0 X131.625 Y125.095
;TIME_ELAPSED:115.769238
;LAYER:1
M106 S44.6
;TYPE:WALL-INNER
;MESH:CarriageTop.3mf
G1 F3666.7 X131.625 Y169.905 E205.38595
G1 X158.375 Y169.905 E206.13664
G1 X158.375 Y125.095 E207.39415
G1 X131.625 Y125.095 E208.14484
G0 F13500 X132.075 Y125.545
G1 F3666.7 X132.075 Y169.455 E209.3771
G1 X157.925 Y169.455 E210.10254
G1 X157.925 Y125.545 E211.33479
G1 X132.075 Y125.545 E212.06023
G0 F13500 X132.525 Y125.995
G1 F3666.7 X132.525 Y169.005 E213.26723
G1 X157.475 Y169.005 E213.96741
G1 X157.475 Y125.995 E215.1744
G1 X132.525 Y125.995 E215.87458
G0 F13500 X132.975 Y126.445
G1 F3666.7 X132.975 Y168.555 E217.05633
G1 X157.025 Y168.555 E217.73125
G1 X157.025 Y126.445 E218.91299
G1 X132.975 Y126.445 E219.58791
G0 F13500 X133.425 Y126.895
G1 F3666.7 X133.425 Y168.105 E220.7444
G1 X156.575 Y168.105 E221.39406
G1 X156.575 Y126.895 E222.55055
G1 X133.425 Y126.895 E223.20021
G0 F13500 X131.98 Y125.45
G0 X131.2 Y124.67
;TYPE:WALL-OUTER
G1 F2100 X131.2 Y170.33 E224.3392
G1 X158.8 Y170.33 E225.02769
G1 X158.8 Y124.67 E226.16668
G1 X131.2 Y124.67 E226.85517
G0 F13500 X131.2 Y124.87
G0 X131.98 Y125.45
G0 X133.875 Y127.345
;TYPE:SKIN
G1 F1800 X133.875 Y138.47 E227.20206
G1 X133.875 Y167.655 E228.11209
G1 X156.125 Y167.655 E228.80587
G1 X156.125 Y127.345 E230.06279
G1 X133.875 Y127.345 E230.75658
G0 F13500 X133.875 Y127.545
G0 X134.124 Y128.211
G1 F1800 X134.742 Y127.594 E230.78381
G0 F13500 X135.449 Y127.594
G1 F1800 X134.124 Y128.919 E230.84224
G0 F13500 X134.124 Y129.626
G1 F1800 X136.156 Y127.594 E230.93184
G0 F13500 X136.863 Y127.594
G1 F1800 X134.124 Y130.333 E231.05263
G0 F13500 X134.124 Y131.04
G1 F1800 X137.57 Y127.594 E231.20459
G0 F13500 X138.277 Y127.594
G1 F1800 X134.124 Y131.747 E231.38772
G0 F13500 X134.124 Y132.454
G1 F1800 X138.984 Y127.594 E231.60203
G0 F13500 X139.691 Y127.594
G1 F1800 X134.124 Y133.161 E231.84752
G0 F13500 X134.124 Y133.868
G1 F1800 X140.398 Y127.594 E232.12419
G0 F13500 X141.105 Y127.594
G1 F1800 X134.124 Y134.575 E232.43203
G0 F13500 X134.124 Y135.282
G1 F1800 X141.813 Y127.594 E232.77107
G0 F13500 X142.52 Y127.594
G1 F1800 X134.124 Y135.99 E233.14131
G0 F13500 X134.124 Y136.697
G1 F1800 X143.227 Y127.594 E233.54273
G0 F13500 X143.934 Y127.594
G1 F1800 X134.124 Y137.404 E233.97532
G0 F13500 X134.124 Y138.111
G1 F1800 X144.641 Y127.594 E234.43909
G0 F13500 X145.348 Y127.594
G1 F1800 X134.124 Y138.818 E234.93403
G0 F13500 X134.124 Y139.525
G1 F1800 X146.055 Y127.594 E235.46016
G0 F13500 X146.762 Y127.594
G1 F1800 X134.124 Y140.232 E236.01746
G0 F13500 X134.124 Y140.939
G1 F1800 X147.469 Y127.594 E236.60593
G0 F13500 X148.177 Y127.594
G1 F1800 X134.124 Y141.646 E237.22561
G0 F13500 X134.124 Y142.354
G1 F1800 X148.884 Y127.594 E237.87648
G0 F13500 X149.591 Y127.594
G1 F1800 X134.124 Y143.061 E238.55853
G0 F13500 X134.124 Y143.768
G1 F1800 X150.298 Y127.594 E239.27176
G0 F13500 X151.005 Y127.594
G1 F1800 X134.124 Y144.475 E240.01616
G0 F13500 X134.124 Y145.182
G1 F1800 X151.712 Y127.594 E240.79174
G0 F13500 X152.419 Y127.594
G1 F1800 X134.124 Y145.889 E241.5985
G0 F13500 X134.124 Y146.596
G1 F1800 X153.126 Y127.594 E242.43643
G0 F13500 X153.833 Y127.594
G1 F1800 X134.124 Y147.303 E243.30554
G0 F13500 X134.124 Y148.01
G1 F1800 X154.541 Y127.594 E244.20585
G0 F13500 X155.248 Y127.594
G1 F1800 X134.124 Y148.717 E245.13734
G0 F13500 X134.124 Y149.425
G1 F1800 X155.873 Y127.675 E246.09643
G0 F13500 X155.873 Y128.383
G1 F1800 X134.124 Y150.132 E247.0555
G0 F13500 X134.124 Y150.839
G1 F1800 X155.873 Y129.09 E248.01456
G0 F13500 X155.873 Y129.797
G1 F1800 X134.124 Y151.546 E248.97363
G0 F13500 X134.124 Y152.253
G1 F1800 X155.873 Y130.504 E249.9327
G0 F13500 X155.873 Y131.211
G1 F1800 X134.124 Y152.96 E250.89177
G0 F13500 X134.124 Y153.667
G1 F1800 X155.873 Y131.918 E251.85084
G0 F13500 X155.873 Y132.625
G1 F1800 X134.124 Y154.374 E252.80991
G0 F13500 X134.124 Y155.081
G1 F1800 X155.873 Y133.332 E253.76897
G0 F13500 X155.873 Y134.039
G1 F1800 X134.124 Y155.789 E254.72806
G0 F13500 X134.124 Y156.496
G1 F1800 X155.873 Y134.746 E255.68716
G0 F13500 X155.873 Y135.454
G1 F1800 X134.124 Y157.203 E256.64622
G0 F13500 X134.124 Y157.91
G1 F1800 X155.873 Y136.161 E257.60529
G0 F13500 X155.873 Y136.868
G1 F1800 X134.124 Y158.617 E258.56436
G0 F13500 X134.124 Y159.324
G1 F1800 X155.873 Y137.575 E259.52343
G0 F13500 X155.873 Y138.282
G1 F1800 X134.124 Y160.031 E260.4825
