;FLAVOR:Marlin
;TIME:898
;Filament used: 0.577753m
;Layer height: 0.15
;MINX:134.924
;MINY:137.436
;MINZ:0.3
;MAXX:155.076
;MAXY:157.564
;MAXZ:12.75
;Generated with Cura_SteamEngine 99.10.0-Arachne_engine_beta_2
M82 ;absolute extrusion mode
M140 S70 ;Start heating bed
M190 S70 ;Wait for bed to reach temp before proceeding
M104 S130 ;Start heating extruder
M109 S130 ;Wait for extruder to reach temp before proceeding
G28 ;Home
M98 PBED.G      	  ; Level the bed
G1 X1 Y1 Z15.0 F6000 ;Move the platform down 15mm
;Heating
M104 S265 ;Start heating extruder
M109 S265 ;Wait for extruder to reach temp before proceeding
G92 E0
G92 E0
G1 F2400 E-1.5
;LAYER_COUNT:84
;LAYER:0
M107
G1 F600 Z0.6
G0 F4500 X137.776 Y140.477 Z0.6
G1 F600 Z0.6
G0 F4500 X145.651 Y157.113
;TYPE:SKIRT
G1 F600 Z0.3
G1 F1800 E0
G1 F606.1 X145.459 Y157.124 E0.01045
G1 X144.445 Y157.119 E0.06554
G1 X144.252 Y157.106 E0.07605
G1 X143.241 Y156.973 E0.13145
G1 X143.051 Y156.935 E0.14198
G1 X142.069 Y156.677 E0.19714
G1 X141.887 Y156.618 E0.20754
G1 X140.941 Y156.239 E0.2629
G1 X140.765 Y156.155 E0.2735
G1 X139.879 Y155.662 E0.32859
G1 X139.722 Y155.561 E0.33873
G1 X138.932 Y154.986 E0.39182
G1 X138.785 Y154.865 E0.40216
G1 X138.041 Y154.168 E0.45755
G1 X137.907 Y154.025 E0.4682
G1 X137.261 Y153.243 E0.5233
G1 X137.148 Y153.088 E0.53373
G1 X136.601 Y152.227 E0.58915
G1 X136.507 Y152.056 E0.59975
G1 X136.074 Y151.135 E0.65504
G1 X136.003 Y150.956 E0.6655
G1 X135.69 Y149.992 E0.72057
G1 X135.642 Y149.805 E0.73106
G1 X135.451 Y148.804 E0.78642
G1 X135.427 Y148.612 E0.79694
G1 X135.363 Y147.598 E0.85214
G1 X135.363 Y147.404 E0.86268
G1 X135.427 Y146.388 E0.91799
G1 X135.451 Y146.196 E0.9285
G1 X135.642 Y145.195 E0.98386
G1 X135.69 Y145.008 E0.99435
G1 X136.003 Y144.044 E1.04942
G1 X136.074 Y143.865 E1.05988
G1 X136.507 Y142.944 E1.11517
G1 X136.601 Y142.773 E1.12578
G1 X137.148 Y141.912 E1.1812
G1 X137.265 Y141.752 E1.19197
G1 X137.94 Y140.942 E1.24925
G1 X138.076 Y140.799 E1.25997
G1 X138.825 Y140.104 E1.31549
G1 X138.973 Y139.983 E1.32587
G1 X139.795 Y139.392 E1.38088
G1 X139.96 Y139.288 E1.39147
G1 X140.858 Y138.801 E1.44698
G1 X141.034 Y138.72 E1.4575
G1 X141.98 Y138.352 E1.51265
G1 X142.16 Y138.294 E1.52292
G1 X143.143 Y138.045 E1.57802
G1 X143.337 Y138.009 E1.58874
G1 X144.349 Y137.887 E1.64412
G1 X144.541 Y137.876 E1.65457
G1 X145.555 Y137.881 E1.70966
G1 X145.748 Y137.894 E1.72017
G1 X146.759 Y138.027 E1.77557
G1 X146.949 Y138.065 E1.7861
G1 X147.931 Y138.323 E1.84126
G1 X148.113 Y138.382 E1.85165
G1 X149.059 Y138.761 E1.90702
G1 X149.234 Y138.845 E1.91757
G1 X150.121 Y139.338 E1.9727
G1 X150.28 Y139.439 E1.98294
G1 X151.069 Y140.014 E2.03598
G1 X151.215 Y140.135 E2.04628
G1 X151.959 Y140.832 E2.10167
G1 X152.093 Y140.975 E2.11232
G1 X152.739 Y141.757 E2.16743
G1 X152.852 Y141.912 E2.17785
G1 X153.398 Y142.771 E2.23315
G1 X153.491 Y142.941 E2.24368
G1 X153.924 Y143.861 E2.29892
G1 X153.996 Y144.041 E2.30945
G1 X154.31 Y145.008 E2.36469
G1 X154.358 Y145.195 E2.37518
G1 X154.549 Y146.196 E2.43055
G1 X154.573 Y146.388 E2.44106
G1 X154.637 Y147.402 E2.49626
G1 X154.637 Y147.595 E2.50674
G1 X154.576 Y148.568 E2.55971
G1 X154.553 Y148.753 E2.56984
G1 X154.359 Y149.797 E2.62753
G1 X154.31 Y149.992 E2.63846
G1 X153.997 Y150.956 E2.69352
G1 X153.926 Y151.135 E2.70398
G1 X153.493 Y152.056 E2.75928
G1 X153.399 Y152.227 E2.76988
G1 X152.852 Y153.088 E2.8253
G1 X152.735 Y153.248 E2.83607
G1 X152.06 Y154.058 E2.89335
G1 X151.924 Y154.201 E2.90407
G1 X151.175 Y154.896 E2.95959
G1 X151.027 Y155.017 E2.96997
G1 X150.205 Y155.608 E3.02498
G1 X150.04 Y155.712 E3.03558
G1 X149.142 Y156.199 E3.09108
G1 X148.966 Y156.28 E3.1016
G1 X148.02 Y156.648 E3.15675
G1 X147.84 Y156.706 E3.16703
G1 X146.857 Y156.955 E3.22212
G1 X146.663 Y156.991 E3.23284
G1 X145.651 Y157.113 E3.28822
G0 F4500 X145.599 Y156.676
G1 F606.1 X145.462 Y156.684 E3.29568
G1 X144.448 Y156.679 E3.35077
G1 X144.31 Y156.67 E3.35828
G1 X143.299 Y156.537 E3.41368
G1 X143.162 Y156.51 E3.42127
G1 X142.18 Y156.252 E3.47643
G1 X142.051 Y156.209 E3.48382
G1 X141.105 Y155.83 E3.53919
G1 X140.979 Y155.77 E3.54677
G1 X140.093 Y155.277 E3.60186
G1 X139.981 Y155.205 E3.60909
G1 X139.191 Y154.63 E3.66218
G1 X139.086 Y154.544 E3.66955
G1 X138.342 Y153.847 E3.72494
G1 X138.246 Y153.745 E3.73255
G1 X137.6 Y152.963 E3.78766
G1 X137.52 Y152.852 E3.79509
G1 X136.973 Y151.991 E3.85051
G1 X136.906 Y151.869 E3.85808
G1 X136.473 Y150.948 E3.91337
G1 X136.422 Y150.82 E3.92085
G1 X136.109 Y149.856 E3.97592
G1 X136.074 Y149.722 E3.98344
G1 X135.883 Y148.721 E4.03881
G1 X135.866 Y148.584 E4.04631
G1 X135.802 Y147.57 E4.10151
G1 X135.802 Y147.432 E4.10901
G1 X135.866 Y146.416 E4.16432
G1 X135.883 Y146.279 E4.17182
G1 X136.074 Y145.278 E4.22718
G1 X136.109 Y145.144 E4.23471
G1 X136.422 Y144.18 E4.28978
G1 X136.473 Y144.052 E4.29726
G1 X136.906 Y143.131 E4.35255
G1 X136.973 Y143.009 E4.36012
G1 X137.52 Y142.148 E4.41554
G1 X137.603 Y142.034 E4.4232
G1 X138.278 Y141.224 E4.48048
G1 X138.375 Y141.122 E4.48813
G1 X139.124 Y140.427 E4.54364
G1 X139.23 Y140.34 E4.55109
G1 X140.052 Y139.749 E4.6061
G1 X140.17 Y139.675 E4.61367
G1 X141.068 Y139.188 E4.66917
G1 X141.193 Y139.13 E4.67665
G1 X142.139 Y138.762 E4.7318
G1 X142.268 Y138.721 E4.73916
G1 X143.251 Y138.472 E4.79425
G1 X143.389 Y138.446 E4.80188
G1 X144.401 Y138.324 E4.85726
G1 X144.538 Y138.316 E4.86472
G1 X145.552 Y138.321 E4.91981
G1 X145.69 Y138.33 E4.92732
G1 X146.701 Y138.463 E4.98272
G1 X146.838 Y138.49 E4.99031
G1 X147.82 Y138.748 E5.04547
G1 X147.949 Y138.791 E5.05286
G1 X148.895 Y139.17 E5.10823
G1 X149.02 Y139.23 E5.11576
G1 X149.907 Y139.723 E5.1709
G1 X150.021 Y139.795 E5.17822
G1 X150.81 Y140.37 E5.23126
G1 X150.914 Y140.456 E5.2386
G1 X151.658 Y141.153 E5.29398
G1 X151.754 Y141.255 E5.30159
G1 X152.4 Y142.037 E5.3567
G1 X152.48 Y142.148 E5.36414
G1 X153.026 Y143.007 E5.41944
G1 X153.093 Y143.129 E5.427
G1 X153.526 Y144.049 E5.48224
G1 X153.577 Y144.177 E5.48973
G1 X153.891 Y145.144 E5.54497
G1 X153.926 Y145.278 E5.55249
G1 X154.117 Y146.279 E5.60786
G1 X154.134 Y146.416 E5.61536
G1 X154.198 Y147.43 E5.67056
G1 X154.198 Y147.568 E5.67805
G1 X154.137 Y148.541 E5.73102
G1 X154.12 Y148.673 E5.73825
G1 X153.926 Y149.717 E5.79595
G1 X153.891 Y149.856 E5.80373
G1 X153.578 Y150.82 E5.8588
G1 X153.527 Y150.948 E5.86628
G1 X153.094 Y151.869 E5.92158
G1 X153.027 Y151.991 E5.92914
G1 X152.48 Y152.852 E5.98456
G1 X152.397 Y152.966 E5.99222
G1 X151.722 Y153.776 E6.04951
G1 X151.625 Y153.878 E6.05715
G1 X150.876 Y154.573 E6.11267
G1 X150.77 Y154.66 E6.12012
G1 X149.948 Y155.251 E6.17512
G1 X149.83 Y155.325 E6.18269
G1 X148.932 Y155.812 E6.23819
G1 X148.807 Y155.87 E6.24568
G1 X147.861 Y156.238 E6.30083
G1 X147.732 Y156.279 E6.30818
G1 X146.749 Y156.528 E6.36327
G1 X146.611 Y156.554 E6.3709
G1 X145.599 Y156.676 E6.42628
G0 F4500 X145.546 Y156.239
G1 F606.1 X144.45 Y156.239 E6.48583
G1 X143.356 Y156.1 E6.54575
G1 X142.292 Y155.826 E6.60544
G1 X141.269 Y155.422 E6.6652
G1 X140.307 Y154.893 E6.72484
G1 X139.45 Y154.275 E6.78225
G1 X138.643 Y153.526 E6.84207
G1 X137.939 Y152.682 E6.90178
G1 X137.344 Y151.755 E6.96163
G1 X136.871 Y150.761 E7.02143
G1 X136.84 Y150.684 E7.02594
G1 X136.527 Y149.72 E7.08101
G1 X136.316 Y148.639 E7.14085
G1 X136.305 Y148.557 E7.14534
G1 X136.241 Y147.46 E7.20505
G1 X136.305 Y146.444 E7.26035
G1 X136.507 Y145.36 E7.32026
G1 X136.527 Y145.28 E7.32474
G1 X136.84 Y144.316 E7.37981
G1 X137.304 Y143.318 E7.4396
G1 X137.891 Y142.384 E7.49954
G1 X137.941 Y142.315 E7.50417
G1 X138.616 Y141.505 E7.56145
G1 X139.423 Y140.749 E7.62153
G1 X140.309 Y140.106 E7.68101
G1 X141.277 Y139.575 E7.74099
G1 X142.299 Y139.172 E7.80068
G1 X143.359 Y138.898 E7.86016
G1 X144.454 Y138.761 E7.92012
G1 X145.55 Y138.761 E7.97967
G1 X146.644 Y138.9 E8.03958
G1 X147.708 Y139.174 E8.09927
G1 X148.731 Y139.578 E8.15903
G1 X149.694 Y140.107 E8.21873
G1 X150.551 Y140.726 E8.27616
G1 X151.357 Y141.474 E8.33591
G1 X152.061 Y142.318 E8.39562
G1 X152.655 Y143.243 E8.45534
G1 X153.128 Y144.236 E8.5151
G1 X153.159 Y144.313 E8.51961
G1 X153.473 Y145.28 E8.57485
G1 X153.684 Y146.361 E8.63469
G1 X153.695 Y146.443 E8.63918
G1 X153.759 Y147.54 E8.69889
G1 X153.688 Y148.593 E8.75623
G1 X153.473 Y149.72 E8.81856
G1 X153.16 Y150.684 E8.87363
G1 X152.696 Y151.682 E8.93342
G1 X152.109 Y152.616 E8.99336
G1 X152.059 Y152.685 E8.99799
G1 X151.384 Y153.495 E9.05527
G1 X150.577 Y154.251 E9.11535
G1 X149.691 Y154.894 E9.17483
G1 X148.723 Y155.425 E9.23481
G1 X147.701 Y155.828 E9.2945
G1 X146.641 Y156.102 E9.35398
G1 X145.546 Y156.239 E9.41394
G1 F2400 E7.91394
G1 F600 Z0.6
G0 F4500 X145.704 Y157.55 Z0.6
G1 F600 Z0.3
G1 F1800 E9.41394
G1 F606.1 X145.457 Y157.564 E9.42738
G1 X144.443 Y157.559 E9.48247
G1 X144.195 Y157.542 E9.49598
G1 X143.184 Y157.409 E9.55138
G1 X142.939 Y157.361 E9.56494
G1 X141.957 Y157.103 E9.6201
G1 X141.724 Y157.026 E9.63344
G1 X140.778 Y156.647 E9.6888
G1 X140.551 Y156.539 E9.70246
G1 X139.665 Y156.046 E9.75755
G1 X139.463 Y155.917 E9.77057
G1 X138.673 Y155.342 E9.82366
G1 X138.484 Y155.186 E9.83697
G1 X137.74 Y154.489 E9.89236
G1 X137.567 Y154.305 E9.90608
G1 X136.921 Y153.523 E9.96119
G1 X136.777 Y153.324 E9.97454
G1 X136.23 Y152.463 E10.02996
G1 X136.109 Y152.243 E10.0436
G1 X135.676 Y151.322 E10.09889
G1 X135.585 Y151.091 E10.11238
G1 X135.272 Y150.127 E10.16744
G1 X135.21 Y149.887 E10.18091
G1 X135.019 Y148.886 E10.23628
G1 X134.988 Y148.64 E10.24975
G1 X134.924 Y147.626 E10.30495
G1 X134.924 Y147.377 E10.31848
G1 X134.988 Y146.361 E10.37379
G1 X135.019 Y146.114 E10.38731
G1 X135.21 Y145.113 E10.44268
G1 X135.272 Y144.873 E10.45615
G1 X135.585 Y143.909 E10.51121
G1 X135.676 Y143.678 E10.5247
G1 X136.109 Y142.757 E10.57999
G1 X136.23 Y142.537 E10.59363
G1 X136.777 Y141.676 E10.64905
G1 X136.927 Y141.47 E10.6629
G1 X137.602 Y140.66 E10.72018
G1 X137.776 Y140.477 E10.7339
G1 X138.525 Y139.782 E10.78942
G1 X138.716 Y139.625 E10.80285
G1 X139.538 Y139.034 E10.85786
G1 X139.75 Y138.901 E10.87145
G1 X140.648 Y138.414 E10.92695
G1 X140.874 Y138.31 E10.94047
G1 X141.82 Y137.942 E10.99562
G1 X142.052 Y137.868 E11.00885
G1 X143.035 Y137.619 E11.06394
G1 X143.284 Y137.572 E11.07771
G1 X144.296 Y137.45 E11.13309
G1 X144.543 Y137.436 E11.14653
G1 X145.557 Y137.441 E11.20162
G1 X145.805 Y137.458 E11.21513
G1 X146.816 Y137.591 E11.27053
G1 X147.061 Y137.639 E11.28409
G1 X148.043 Y137.897 E11.33926
G1 X148.276 Y137.974 E11.35259
G1 X149.222 Y138.353 E11.40796
G1 X149.448 Y138.46 E11.42154
G1 X150.335 Y138.953 E11.47668
G1 X150.539 Y139.084 E11.48985
G1 X151.328 Y139.659 E11.54289
G1 X151.516 Y139.814 E11.55613
G1 X152.26 Y140.511 E11.61152
G1 X152.433 Y140.695 E11.62524
G1 X153.079 Y141.477 E11.68035
G1 X153.223 Y141.676 E11.69369
G1 X153.769 Y142.535 E11.74899
G1 X153.889 Y142.754 E11.76256
G1 X154.322 Y143.674 E11.8178
G1 X154.414 Y143.905 E11.83131
G1 X154.728 Y144.872 E11.88655
G1 X154.79 Y145.113 E11.90007
G1 X154.981 Y146.114 E11.95544
G1 X155.012 Y146.36 E11.96891
G1 X155.076 Y147.374 E12.02411
G1 X155.076 Y147.623 E12.03764
G1 X155.015 Y148.596 E12.0906
G1 X154.986 Y148.834 E12.10363
G1 X154.792 Y149.878 E12.16132
G1 X154.728 Y150.127 E12.17529
G1 X154.415 Y151.091 E12.23036
G1 X154.324 Y151.322 E12.24385
G1 X153.891 Y152.243 E12.29914
G1 X153.77 Y152.463 E12.31278
G1 X153.223 Y153.324 E12.3682
G1 X153.073 Y153.53 E12.38204
G1 X152.398 Y154.34 E12.43933
G1 X152.224 Y154.523 E12.45305
G1 X151.475 Y155.218 E12.50856
G1 X151.284 Y155.375 E12.522
G1 X150.462 Y155.966 E12.577
G1 X150.25 Y156.099 E12.5906
G1 X149.352 Y156.586 E12.6461
G1 X149.126 Y156.69 E12.65961
G1 X148.18 Y157.058 E12.71476
G1 X147.948 Y157.132 E12.72799
G1 X146.965 Y157.381 E12.78309
G1 X146.716 Y157.428 E12.79685
G1 X145.704 Y157.55 E12.85223
G1 F2400 E11.35223
G1 F600 Z0.6
G0 F4500 X146.505 Y155.68 Z0.6
G1 F600 Z0.3
G1 F1800 E12.85223
G1 F606.1 X145.466 Y155.804 E12.90908
G1 X144.424 Y155.797 E12.9657
G1 X143.386 Y155.659 E13.02259
G1 X142.378 Y155.392 E13.07924
G1 X141.407 Y155.001 E13.13611
G1 X140.499 Y154.494 E13.19262
G1 X139.688 Y153.902 E13.24717
G1 X138.924 Y153.184 E13.30413
G1 X138.262 Y152.38 E13.36071
G1 X137.702 Y151.495 E13.41761
G1 X137.259 Y150.548 E13.47442
G1 X136.939 Y149.557 E13.53099
G1 X136.744 Y148.529 E13.58784
G1 X136.68 Y147.487 E13.64456
G1 X136.748 Y146.444 E13.70135
G1 X136.946 Y145.416 E13.75823
G1 X137.269 Y144.426 E13.8148
G1 X137.715 Y143.481 E13.87158
G1 X138.279 Y142.597 E13.92855
G1 X138.973 Y141.767 E13.98733
G1 X139.744 Y141.054 E14.04438
G1 X140.589 Y140.449 E14.10085
G1 X141.512 Y139.95 E14.15785
G1 X142.484 Y139.574 E14.21448
G1 X143.495 Y139.32 E14.27111
G1 X144.534 Y139.196 E14.32796
G1 X145.576 Y139.203 E14.38457
G1 X146.614 Y139.341 E14.44147
G1 X147.622 Y139.608 E14.49812
G1 X148.593 Y139.999 E14.55499
G1 X149.503 Y140.506 E14.61159
G1 X150.312 Y141.098 E14.66605
G1 X151.076 Y141.816 E14.72301
G1 X151.738 Y142.62 E14.7796
G1 X152.297 Y143.503 E14.83638
G1 X152.74 Y144.449 E14.89313
G1 X153.061 Y145.443 E14.94988
G1 X153.256 Y146.471 E15.00673
G1 X153.32 Y147.513 E15.06345
G1 X153.255 Y148.512 E15.11784
G1 X153.054 Y149.584 E15.17709
G1 X152.731 Y150.574 E15.23367
G1 X152.285 Y151.519 E15.29044
G1 X151.721 Y152.403 E15.34742
G1 X151.027 Y153.233 E15.4062
G1 X150.256 Y153.946 E15.46325
G1 X149.411 Y154.551 E15.51971
G1 X148.488 Y155.05 E15.57672
G1 X147.516 Y155.426 E15.63334
G1 X146.505 Y155.68 E15.68998
G1 F2400 E14.18998
G1 F600 Z0.6
;MESH:groove-mount-bowden.stl
G0 F4500 X145.895 Y151.532 Z0.6
;TYPE:WALL-INNER
G1 F600 Z0.3
G1 F1800 E15.68998
G1 F606.1 X145.758 Y151.56 E15.69758
G1 X145.666 Y151.574 E15.70263
G1 X145.381 Y151.612 E15.71825
G1 X145.243 Y151.623 E15.72577
G1 X144.862 Y151.626 E15.74647
G1 X144.727 Y151.622 E15.75381
G1 X144.343 Y151.577 E15.77482
G1 X144.209 Y151.554 E15.7822
G1 X144.11 Y151.532 E15.78771
G1 X143.849 Y151.465 E15.80235
G1 X143.716 Y151.426 E15.80989
G1 X143.369 Y151.292 E15.83009
G1 X143.229 Y151.231 E15.83839
G1 X143.136 Y151.183 E15.84408
G1 X142.9 Y151.053 E15.85872
G1 X142.77 Y150.975 E15.86695
G1 X142.712 Y150.936 E15.87075
G1 X142.467 Y150.762 E15.88708
G1 X142.37 Y150.687 E15.89374
G1 X142.282 Y150.609 E15.90013
G1 X142.085 Y150.425 E15.91477
G1 X141.988 Y150.328 E15.92223
G1 X141.913 Y150.242 E15.92843
G1 X141.732 Y150.022 E15.9439
G1 X141.658 Y149.927 E15.95045
G1 X141.593 Y149.831 E15.95674
G1 X141.446 Y149.601 E15.97157
G1 X141.38 Y149.489 E15.97864
G1 X141.32 Y149.373 E15.98573
G1 X141.206 Y149.129 E16.00037
G1 X141.161 Y149.023 E16.00662
G1 X141.119 Y148.908 E16.01327
G1 X141.035 Y148.652 E16.02791
G1 X140.997 Y148.522 E16.03527
G1 X140.971 Y148.404 E16.04183
G1 X140.92 Y148.132 E16.05687
G1 X140.902 Y148.018 E16.06314
G1 X140.89 Y147.894 E16.06991
G1 X140.873 Y147.628 E16.08439
G1 X140.87 Y147.502 E16.09124
G1 X140.873 Y147.376 E16.09809
G1 X140.89 Y147.107 E16.11273
G1 X140.902 Y146.98 E16.11966
G1 X140.92 Y146.868 E16.12582
G1 X140.97 Y146.601 E16.14058
G1 X140.996 Y146.481 E16.14725
G1 X141.035 Y146.349 E16.15473
G1 X141.119 Y146.092 E16.16942
G1 X141.16 Y145.978 E16.176
G1 X141.206 Y145.871 E16.18233
G1 X141.32 Y145.627 E16.19696
G1 X141.381 Y145.508 E16.20423
G1 X141.441 Y145.407 E16.21061
G1 X141.593 Y145.169 E16.22595
G1 X141.656 Y145.075 E16.2321
G1 X141.728 Y144.982 E16.23849
G1 X141.911 Y144.759 E16.25416
G1 X141.999 Y144.66 E16.26136
G1 X142.084 Y144.576 E16.26785
G1 X142.277 Y144.397 E16.28215
G1 X142.378 Y144.309 E16.28943
G1 X142.454 Y144.251 E16.29463
G1 X142.686 Y144.082 E16.31022
G1 X142.799 Y144.007 E16.31759
G1 X142.877 Y143.96 E16.32254
G1 X143.135 Y143.816 E16.33859
G1 X143.253 Y143.757 E16.34576
G1 X143.35 Y143.715 E16.3515
G1 X143.614 Y143.611 E16.36692
G1 X143.745 Y143.566 E16.37444
G1 X143.827 Y143.542 E16.37908
G1 X144.105 Y143.469 E16.3947
G1 X144.242 Y143.44 E16.40231
G1 X144.334 Y143.426 E16.40736
G1 X144.619 Y143.389 E16.42298
G1 X144.757 Y143.377 E16.4305
G1 X145.138 Y143.374 E16.45121
G1 X145.273 Y143.378 E16.45854
G1 X145.368 Y143.387 E16.46373
G1 X145.657 Y143.422 E16.47954
G1 X145.791 Y143.446 E16.48694
G1 X145.89 Y143.468 E16.49245
G1 X146.155 Y143.535 E16.5073
G1 X146.284 Y143.575 E16.51464
